!!!!SEGMENT:47Souzenkuzushi_c.krn
!!!OTL: 早膳くづし
!!!OPR:Eiga Banso Kyokusyu,jidai-geki,zenpen
!!!YOY:1929
!!!ONB:Kenka,Kokkei
**kern
*clefG2
*C:
*M2/4
=1
8BL
8b
8B
8bJ
=2
8BL
16bL
16BJJ
4B
=3
16BLL
16B
16b
16BJJ
4B
=4
8BL
8d
8e
8f#J
=5
8f#L
8gJ
4f#
=6
8.f#L
16aJk
8bL
8aJ
=7
8bL
8eeJ
4b
=8
8bL
8ee
8ff#
8eeJ
=9
8ff#L
16ff#L
16ff#JJ
4ff#
=10
8ff#L
8aaJ
8bbL
8aaJ
=11
8bbL
16bbL
16bbJJ
4bb
=12
8bbL
8bbJ
16bbLL
16bbJ
8bbJ
=13
8bbL
16bbL
16bbJJ
4bb
=14
8aaL
16bbL
16aaJJ
8ff#L
16ggL
16ff#JJ
=15
8eeL
16ff#L
16eeJJ
8ccL
8bJ
=16
8eeL
8ccJ
8bL
8aJ
=17
8bL
16bL
16bJJ
4b
==
*-
!!!ENC: Yukiko Yoden
!!!END: 2023/06/11
